X: 31728
T: Pat Enright's
R: polka
M: 2/4
K: Gmajor
|:D2 D2|EF GB|A2 AG|EG AB|
D2 D2|EF GB|dB AB|1 G2 GE:|2 G2 Bc||
d2 Bd|ef ge|dB AG|EG AB|
d2 Bd|ef ge|dB AB|G2 Bc|
d2 Bd|ef ge|dB AG|EG AB|
D2 D2|EF GB|dB AB|G2 GE||

